svg/SJJB-OpenStreetMapIcons/power/tower_high.svg

<?xml version="1.0" encoding="UTF-8" standalone="no"?>
<!-- Created with Inkscape (http://www.inkscape.org/) -->

<svg
   xmlns:dc="http://purl.org/dc/elements/1.1/"
   xmlns:cc="http://creativecommons.org/ns#"
   xmlns:rdf="http://www.w3.org/1999/02/22-rdf-syntax-ns#"
   xmlns:svg="http://www.w3.org/2000/svg"
   xmlns="http://www.w3.org/2000/svg"
   xmlns:sodipodi="http://sodipodi.sourceforge.net/DTD/sodipodi-0.dtd"
   xmlns:inkscape="http://www.inkscape.org/namespaces/inkscape"
   version="1.0"
   width="580"
   height="580"
   id="svg2"
   sodipodi:version="0.32"
   inkscape:version="0.48.0 r9654"
   sodipodi:docname="power_tower_high.svg"
   inkscape:output_extension="org.inkscape.output.svg.inkscape">
  <metadata
     id="metadata10">
    <rdf:RDF>
      <cc:Work
         rdf:about="">
        <dc:format>image/svg+xml</dc:format>
        <dc:type
           rdf:resource="http://purl.org/dc/dcmitype/StillImage" />
        <cc:license
           rdf:resource="http://web.resource.org/cc/PublicDomain" />
        <dc:language>en</dc:language>
      </cc:Work>
    </rdf:RDF>
  </metadata>
  <sodipodi:namedview
     inkscape:window-height="1002"
     inkscape:window-width="1278"
     inkscape:pageshadow="2"
     inkscape:pageopacity="0.0"
     guidetolerance="10.0"
     gridtolerance="10.0"
     objecttolerance="10.0"
     borderopacity="1.0"
     bordercolor="#666666"
     pagecolor="#ffffff"
     id="base"
     showgrid="false"
     inkscape:zoom="0.70710678"
     inkscape:cx="270.6137"
     inkscape:cy="259.98847"
     inkscape:window-x="0"
     inkscape:window-y="24"
     inkscape:current-layer="svg2"
     inkscape:window-maximized="0" />
  <defs
     id="defs4">
    <inkscape:perspective
       sodipodi:type="inkscape:persp3d"
       inkscape:vp_x="0 : 290 : 1"
       inkscape:vp_y="0 : 1000 : 0"
       inkscape:vp_z="580 : 290 : 1"
       inkscape:persp3d-origin="290 : 193.33333 : 1"
       id="perspective12" />
    <style
       type="text/css"
       id="style6">
   
    .fil0 {fill:#EF7900}
   
  </style>
    <inkscape:perspective
       id="perspective6807"
       inkscape:persp3d-origin="29.116032 : 19.410688 : 1"
       inkscape:vp_z="58.232063 : 29.116032 : 1"
       inkscape:vp_y="0 : 1000 : 0"
       inkscape:vp_x="0 : 29.116032 : 1"
       sodipodi:type="inkscape:persp3d" />
    <inkscape:perspective
       id="perspective6954"
       inkscape:persp3d-origin="290 : 193.33333 : 1"
       inkscape:vp_z="580 : 290 : 1"
       inkscape:vp_y="0 : 1000 : 0"
       inkscape:vp_x="0 : 290 : 1"
       sodipodi:type="inkscape:persp3d" />
    <inkscape:perspective
       id="perspective2541"
       inkscape:persp3d-origin="240 : 160 : 1"
       inkscape:vp_z="480 : 240 : 1"
       inkscape:vp_y="0 : 1000 : 0"
       inkscape:vp_x="0 : 240 : 1"
       sodipodi:type="inkscape:persp3d" />
    <inkscape:perspective
       id="perspective2750"
       inkscape:persp3d-origin="215 : 143.33333 : 1"
       inkscape:vp_z="430 : 215 : 1"
       inkscape:vp_y="0 : 1000 : 0"
       inkscape:vp_x="0 : 215 : 1"
       sodipodi:type="inkscape:persp3d" />
    <inkscape:perspective
       id="perspective3730"
       inkscape:persp3d-origin="88.929146 : 101.19778 : 1"
       inkscape:vp_z="177.85829 : 151.79668 : 1"
       inkscape:vp_y="0 : 1000 : 0"
       inkscape:vp_x="0 : 151.79668 : 1"
       sodipodi:type="inkscape:persp3d" />
  </defs>
  <g
     id="g1327">
    <path
       d="M 66.275,1.768 C 24.94,1.768 1.704,23.139 1.704,66.804 L 1.704,516.927 C 1.704,557.771 22.598,579.156 63.896,579.156 L 515.92,579.156 C 557.227,579.156 578.149,558.84 578.149,516.927 L 578.149,66.804 C 578.149,24.203 557.227,1.768 514.627,1.768 C 514.624,1.768 66.133,1.625 66.275,1.768 z"
       style="fill:#111111;stroke:#eeeeee;stroke-width:3.40799999"
       id="path1329" />
  </g>
  <path
     d="M 292.54222,132.60258 C 292.54222,132.90911 292.54222,93.21567 292.54222,93.5222 C 292.54222,117.85531 276.20952,369.78441 172.11187,508.73738"
     id="path1686"
     sodipodi:nodetypes="ccc"
     style="fill:none;fill-opacity:0.75000000000000000;fill-rule:evenodd;stroke:#ffffff;stroke-width:19.80927849000000100;stroke-linecap:round;stroke-linejoin:round;stroke-miterlimit:4;stroke-opacity:1" />
  <path
     d="M 292.2498,132.14279 C 292.2498,132.44933 292.2498,92.75589 292.2498,93.06242 C 292.2498,117.39547 308.5825,369.32463 412.68011,508.27769"
     id="path2308"
     sodipodi:nodetypes="ccc"
     style="fill:none;fill-opacity:0.75000000000000000;fill-rule:evenodd;stroke:#ffffff;stroke-width:19.80927849000000100;stroke-linecap:round;stroke-linejoin:round;stroke-miterlimit:4;stroke-opacity:1" />
  <path
     id="path3758"
     d="M 317.84839,284.64087 L 249.34445,348.05373"
     style="opacity:1;fill:none;fill-rule:evenodd;stroke:#ffffff;stroke-width:12.53017044;stroke-linecap:round;stroke-linejoin:miter;stroke-miterlimit:4;stroke-dasharray:none;stroke-opacity:1" />
  <path
     style="opacity:1;fill:none;fill-rule:evenodd;stroke:#ffffff;stroke-width:12.53017044;stroke-linecap:round;stroke-linejoin:miter;stroke-miterlimit:4;stroke-dasharray:none;stroke-opacity:1"
     d="M 267.37692,284.64087 L 335.88086,348.05373"
     id="path3768" />
  <path
     style="opacity:1;fill:none;fill-rule:evenodd;stroke:#ffffff;stroke-width:15.42174816;stroke-linecap:round;stroke-linejoin:miter;stroke-miterlimit:4;stroke-dasharray:none;stroke-opacity:1"
     d="M 262.86852,347.87329 L 370.09962,447.13518"
     id="path3770" />
  <path
     id="path3772"
     d="M 322.01303,347.87329 L 214.78193,447.13518"
     style="opacity:1;fill:none;fill-rule:evenodd;stroke:#ffffff;stroke-width:15.42174816;stroke-linecap:round;stroke-linejoin:miter;stroke-miterlimit:4;stroke-dasharray:none;stroke-opacity:1" />
  <path
     id="path3804"
     d="M 294.39906,94.807 C 167.11984,175.41717 35.59798,93.39278 35.59798,93.39278"
     style="opacity:0.5;fill:none;stroke:#ffffff;stroke-width:20;stroke-linecap:butt;stroke-linejoin:miter;stroke-miterlimit:4;stroke-opacity:1;stroke-dasharray:none"
     inkscape:connector-curvature="0" />
  <path
     style="opacity:0.5;fill:none;stroke:#ffffff;stroke-width:20;stroke-linecap:butt;stroke-linejoin:miter;stroke-miterlimit:4;stroke-opacity:1;stroke-dasharray:none"
     d="M 550.39906,96.807 C 423.11984,177.41717 291.59798,95.39278 291.59798,95.39278"
     id="path3806"
     inkscape:connector-curvature="0" />
  <path
     id="path3816"
     d="M 294.39906,168.807 C 167.11984,249.41717 35.59798,167.39278 35.59798,167.39278"
     style="opacity:0.5;fill:none;stroke:#ffffff;stroke-width:20;stroke-linecap:butt;stroke-linejoin:miter;stroke-miterlimit:4;stroke-opacity:1;stroke-dasharray:none"
     inkscape:connector-curvature="0" />
  <path
     style="opacity:0.5;fill:none;stroke:#ffffff;stroke-width:20;stroke-linecap:butt;stroke-linejoin:miter;stroke-miterlimit:4;stroke-opacity:1;stroke-dasharray:none"
     d="M 550.39906,170.807 C 423.11984,251.41717 291.59798,169.39278 291.59798,169.39278"
     id="path3818"
     inkscape:connector-curvature="0" />
  <path
     style="opacity:0.5;fill:none;stroke:#ffffff;stroke-width:24;stroke-linecap:butt;stroke-linejoin:miter;stroke-miterlimit:4;stroke-opacity:1;stroke-dasharray:none"
     d="M 294.39906,94.807 C 167.11984,175.41717 35.59798,93.39278 35.59798,93.39278"
     id="path6330"
     inkscape:connector-curvature="0" />
  <path
     id="path6332"
     d="M 550.39906,96.807 C 423.11984,177.41717 291.59798,95.39278 291.59798,95.39278"
     style="opacity:0.5;fill:none;stroke:#ffffff;stroke-width:24;stroke-linecap:butt;stroke-linejoin:miter;stroke-miterlimit:4;stroke-opacity:1;stroke-dasharray:none"
     inkscape:connector-curvature="0" />
  <path
     inkscape:connector-curvature="0"
     style="opacity:0.50000000000000000;fill:none;stroke:#ffffff;stroke-width:24;stroke-linecap:butt;stroke-linejoin:miter;stroke-miterlimit:4;stroke-opacity:1;stroke-dasharray:none"
     d="M 294.39906,168.807 C 167.11984,249.41717 35.59798,167.39278 35.59798,167.39278"
     id="path6334" />
  <path
     inkscape:connector-curvature="0"
     id="path6336"
     d="M 550.39906,170.807 C 423.11984,251.41717 291.59798,169.39278 291.59798,169.39278"
     style="opacity:0.50000000000000000;fill:none;stroke:#ffffff;stroke-width:24;stroke-linecap:butt;stroke-linejoin:miter;stroke-miterlimit:4;stroke-opacity:1;stroke-dasharray:none" />
</svg>

<svg xmlns="http://www.w3.org/2000/svg" viewBox="0 0 580 580"><path d="m66.28 1.768c-41.34 0-64.57 21.371-64.57 65.04v450.12c0 40.844 20.894 62.23 62.19 62.23h452.02c41.31 0 62.23-20.316 62.23-62.23v-450.12c0-42.601-20.922-65.04-63.52-65.04-.003 0-448.49-.143-448.35 0z" fill="#111" stroke="#eee" stroke-width="3.408"/><g fill="none" stroke="#fff"><g fill-rule="evenodd" stroke-linecap="round"><g stroke-linejoin="round" fill-opacity=".75" stroke-width="19.809"><path d="m292.54 132.6c0 .307 0-39.39 0-39.08 0 24.333-16.333 276.26-120.43 415.22"/><path d="m292.25 132.14c0 .307 0-39.39 0-39.08 0 24.333 16.333 276.26 120.43 415.22"/></g><g stroke-width="12.53"><path d="m317.85 284.64l-68.5 63.41"/><path d="m267.38 284.64l68.5 63.41"/></g><g stroke-width="15.422"><path d="m262.87 347.87l107.23 99.26"/><path d="m322.01 347.87l-107.23 99.26"/></g></g><g stroke-width="20"><path d="m294.4 94.81c-127.28 80.61-258.8-1.414-258.8-1.414" opacity=".5"/><path d="m550.4 96.81c-127.28 80.61-258.8-1.414-258.8-1.414" opacity=".5"/><path d="m294.4 168.81c-127.28 80.61-258.8-1.414-258.8-1.414" opacity=".5"/><path d="m550.4 170.81c-127.28 80.61-258.8-1.414-258.8-1.414" opacity=".5"/></g><g stroke-width="24"><path d="m294.4 94.81c-127.28 80.61-258.8-1.414-258.8-1.414" opacity=".5"/><path d="m550.4 96.81c-127.28 80.61-258.8-1.414-258.8-1.414" opacity=".5"/><path d="m294.4 168.81c-127.28 80.61-258.8-1.414-258.8-1.414" opacity=".5"/><path d="m550.4 170.81c-127.28 80.61-258.8-1.414-258.8-1.414" opacity=".5"/></g></g></svg>
